src/Assets/Icons/NavBar/edit.svg

<svg width="20" height="20" viewBox="0 0 20 20" fill="none" xmlns="http://www.w3.org/2000/svg">
<path d="M18.9945 10.0029C18.7294 10.0029 18.4751 10.1082 18.2876 10.2957C18.1001 10.4832 17.9948 10.7375 17.9948 11.0026V17.0009C17.9948 17.266 17.8895 17.5203 17.702 17.7078C17.5145 17.8953 17.2602 18.0006 16.9951 18.0006H2.99913C2.73399 18.0006 2.47971 17.8953 2.29223 17.7078C2.10475 17.5203 1.99942 17.266 1.99942 17.0009V3.00493C1.99942 2.73979 2.10475 2.48551 2.29223 2.29803C2.47971 2.11054 2.73399 2.00522 2.99913 2.00522H8.99739C9.26253 2.00522 9.51681 1.89989 9.70429 1.71241C9.89178 1.52493 9.9971 1.27065 9.9971 1.00551C9.9971 0.740367 9.89178 0.486087 9.70429 0.298605C9.51681 0.111123 9.26253 0.00579666 8.99739 0.00579666H2.99913C2.20371 0.00579666 1.44087 0.321776 0.878425 0.884222C0.315979 1.44667 0 2.20951 0 3.00493V17.0009C0 17.7963 0.315979 18.5591 0.878425 19.1216C1.44087 19.684 2.20371 20 2.99913 20H16.9951C17.7905 20 18.5533 19.684 19.1158 19.1216C19.6782 18.5591 19.9942 17.7963 19.9942 17.0009V11.0026C19.9942 10.7375 19.8889 10.4832 19.7014 10.2957C19.5139 10.1082 19.2596 10.0029 18.9945 10.0029ZM3.99884 10.7627V15.0014C3.99884 15.2666 4.10417 15.5209 4.29165 15.7084C4.47913 15.8958 4.73341 16.0012 4.99855 16.0012H9.23732C9.36889 16.0019 9.49931 15.9767 9.62112 15.927C9.74292 15.8772 9.8537 15.8039 9.94712 15.7112L16.8651 8.78325L19.7043 6.00406C19.798 5.91112 19.8724 5.80055 19.9231 5.67873C19.9739 5.5569 20 5.42624 20 5.29426C20 5.16229 19.9739 5.03162 19.9231 4.9098C19.8724 4.78797 19.798 4.6774 19.7043 4.58447L15.4655 0.295713C15.3726 0.202011 15.262 0.127639 15.1402 0.0768846C15.0184 0.0261307 14.8877 0 14.7557 0C14.6237 0 14.4931 0.0261307 14.3713 0.0768846C14.2494 0.127639 14.1389 0.202011 14.0459 0.295713L11.2267 3.12489L4.28876 10.0529C4.1961 10.1463 4.1228 10.2571 4.07305 10.3789C4.0233 10.5007 3.99808 10.6311 3.99884 10.7627ZM14.7557 2.4151L17.5849 5.24428L16.1653 6.66387L13.3361 3.83469L14.7557 2.4151ZM5.99826 11.1726L11.9265 5.24428L14.7557 8.07346L8.82744 14.0017H5.99826V11.1726Z" fill="#F5F4F3"/>
</svg>

<svg xmlns="http://www.w3.org/2000/svg" width="20" height="20" fill="none"><path fill="#F5F4F3" d="M19 10a1 1 0 0 0-1 1v6a1 1 0 0 1-1 1H3a1 1 0 0 1-1-1V3a1 1 0 0 1 1-1h6a1 1 0 0 0 0-2H3a3 3 0 0 0-3 3v14a3 3 0 0 0 3 3h14a3 3 0 0 0 3-3v-6a1 1 0 0 0-1-1Zm-15 .76V15a1 1 0 0 0 1 1h4.24a1 1 0 0 0 .7-.29l6.93-6.93L19.7 6a1 1 0 0 0 0-1.42L15.47.3a1 1 0 0 0-1.42 0l-2.82 2.82-6.94 6.93a1 1 0 0 0-.3.71Zm10.76-8.34 2.82 2.82-1.41 1.42-2.83-2.83 1.42-1.41ZM6 11.17l5.93-5.93 2.83 2.83L8.83 14H6v-2.83Z"/></svg>
